icons/line/database.svg

<svg width="24" height="24" viewBox="0 0 24 24" fill="none" xmlns="http://www.w3.org/2000/svg">
<path d="M21 7C21 9.20914 16.9706 11 12 11C7.02944 11 3 9.20914 3 7M21 7C21 4.79086 16.9706 3 12 3C7.02944 3 3 4.79086 3 7M21 7V12M3 7V12M21 12C21 14.2091 16.9706 16 12 16C7.02944 16 3 14.2091 3 12M21 12V17C21 19.2091 16.9706 21 12 21C7.02944 21 3 19.2091 3 17V12" stroke="currentColor" stroke-width="2" stroke-linecap="round" stroke-linejoin="round"/>
</svg>

<svg width="24" height="24" fill="none" xmlns="http://www.w3.org/2000/svg"><path d="M21 7c0 2.21-4.03 4-9 4S3 9.21 3 7m18 0c0-2.21-4.03-4-9-4S3 4.79 3 7m18 0v5M3 7v5m18 0c0 2.21-4.03 4-9 4s-9-1.79-9-4m18 0v5c0 2.21-4.03 4-9 4s-9-1.79-9-4v-5" stroke="currentColor" stroke-width="2" stroke-linecap="round" stroke-linejoin="round"/></svg>
